X: 160
T: No_92_The_Owl_Feather_is_Looking_for_the_Dawn.krn
N: Derived from No_92_The_Owl_Feather_is_Looking_for_the_Dawn.krn
%%abc-version 2.0
%%abcx-abcm2ps-target-version 5.9.1 (29 Sep 2008)
%%abc-creator hum2abc beta
%%abcx-conversion-date 2019/03/15 08:37:56
%%humdrum-veritas 1882650012
%%humdrum-veritas-data 3008256938
%%linebreak <none>
%%barnumbers 0
L: 1/8
M: 2/4
K: Gb clef=bass
[K:clef=bass][M:2/4]E,2B,3/F,/ ||  
[M:5/8]G,2(3F,E,E, E, ]|:  
[M:2/4]F,3/E,/ (3F,E,E, ||  
[M:3/4]E,3/E,/ E,3/E,/ C,3/C,/ | 
(3E,E,E, E,E,- E, z ||  
[M:2/4]B,3/F,/ (3G,G,G, | 
(3F,E,E, E,3/C,/ ||  
[M:3/4]E,3/E,/ (3F,E,E, E, (3C,/C,/C,/ ||  
[M:2/4]E,2(3E,E,E, | 
E,2z2 :|]  



% FRACTION = 0.499817BUT SHOULD BE 0
